X:7681
T:Natta kvarv
C:anon.
O:Norway?
R:Rundsang, round, canon
F:http://abc.musicaviva.com/tunes/norway/natta-kvarv/natta-kvarv-1.abc
M:C
L:1/4
K:F
"^1"FAcc|"^2"dcBA|
w:Nat-ta kvarv og mor-gon-so-la
"^3"BAGF|EFG2|
w:str\aa-lar o-ver land og hav,
ccBB|AAGG|
w:vekk-jer, var-mar alt som le-ver,
FCDE|F3z|]
w:liv og lys ho gav.
W:
W:Natta kvarv og morgonsola
W:str\aalar over land og hav,
W:vekkjer, varmar alt som lever,
W:liv og lys ho gav.
W:
W:
W:  From Musica Viva - http://www.musicaviva.com
W:  the Internet center for free sheet music downloads.

